svgs/sharp-light/vent-damper.svg

<svg xmlns="http://www.w3.org/2000/svg" viewBox="0 0 640 512"><!--! Font Awesome Pro 6.6.0 by @fontawesome - https://fontawesome.com License - https://fontawesome.com/license (Commercial License) Copyright 2024 Fonticons, Inc. --><path d="M544 96l0 48 0 224 0 48L96 416l0-48 0-224 0-48 448 0zM64 96l0 32-48 0L0 128l0 16L0 368l0 16 16 0 48 0 0 32 0 32 32 0 448 0 32 0 0-32 0-32 48 0 16 0 0-16 0-224 0-16-16 0-48 0 0-32 0-32-32 0L96 64 64 64l0 32zM32 352l0-192 32 0 0 192-32 0zm576 0l-32 0 0-192 32 0 0 192zM176 160l-16 0 0 32 16 0 288 0 16 0 0-32-16 0-288 0zm0 80l-16 0 0 32 16 0 288 0 16 0 0-32-16 0-288 0zm0 80l-16 0 0 32 16 0 288 0 16 0 0-32-16 0-288 0z"/></svg>

<svg xmlns="http://www.w3.org/2000/svg" viewBox="0 0 640 512"><!--! Font Awesome Pro 6.5.2 by @fontawesome - https://fontawesome.com License - https://fontawesome.com/license (Commercial License) Copyright 2024 Fonticons, Inc. --><path d="M544 96v48V368v48H96V368 144 96H544zM64 96v32H16c-8.8 0-16 7.2-16 16V368c0 8.8 7.2 16 16 16H64v32 32H96 544h32V416 384h48c8.8 0 16-7.2 16-16V144c0-8.8-7.2-16-16-16H576V96 64H544 96 64V96zM32 352V160H64V352H32zm576 0H576V160h32V352zM176 160H160v32h16H464h16V160H464 176zm0 80H160v32h16H464h16V240H464 176zm0 80H160v32h16H464h16V320H464 176z"/></svg>
